src/img/icons/twitter.svg

<svg width="512" height="512" version="1.1" viewBox="0 0 384 384" xmlns="http://www.w3.org/2000/svg">
 <path d="m258.14083 60.73376c-6.21162-0.0374-12.33984 0.62402-17.74218 2.0376-13.44922 3.52343-28.24268 12.15624-35.00831 20.42578-12.00781 14.68359-18.56591 34.40576-17.31592 52.06201 0.27344 3.88281 0.56596 8.05175 0.65186 9.2666l0.15235 2.20606-9.19483-0.11719c-19.57422-0.24609-41.49609-6.03467-63.64453-16.80029-21.550776-10.47267-40.934076-24.77393-62.699706-46.24659l-8.988285-8.87109-1.44873 3.27832c-0.796875 1.80078-2.281245 6.16406-3.304687 9.6914-7.695308 26.57421-1.543463 49.66017 18.909667 70.98048 7.332023 7.64452 7.340813 8.72558 0.06739 8.59277-3.964853-0.0703-7.266608-0.8003-14.094728-3.12452-4.902352-1.66797-9.124507-3.03515-9.382327-3.03515-0.257805 0-0.257805 1.90235 0 4.23047 3.265635 29.48047 17.85987 48.48389 45.625492 59.40966 7.562498 2.97657 7.90137 4.46924 1.467773 6.46144-5.98437 1.85155-13.804688 2.37938-19.828125 1.3286-2.746088-0.47659-5.182613-0.67676-5.416995-0.44237-0.652335 0.65234 4.034182 9.75438 7.608397 14.78173 9.859373 13.85546 29.289563 25.34424 47.805174 28.2583 2.83204 0.44923 6.24659 0.98389 7.58643 1.19092 4.01953 0.625 2.87841 2.94092-3.96534 8.02295-16.718739 12.41406-35.948716 19.57862-61.378411 22.85595-2.226555 0.28907-10.165035 0.89113-17.645505 1.34034l-13.596683 0.82031 0.276855 0.25928c-1.611592 0.0803 2.15445 2.93638 8.050785 6.11132 5.636723 3.03517 13.37109 6.16357 19.21875 8.40967 14.660153 5.625 36.569828 11.16407 52.401849 12.9375 3.82813 0.42579 8.44629 0.66797 9.65332 0.83204 1.09206 0.14888 3.56332 0.2079 6.77198 0.20361 10.40148 0.44606 21.62781 0.0342 32.54443-1.11768 3.28881-0.21037 6.09793-0.43009 7.58936-0.64453 51.34374-7.36328 94.81299-34.65185 126.60204-77.16357 14.90154-19.92775 25.80063-42.5699 32.47706-65.95898 5.11752-17.55474 7.84319-35.64009 7.87353-53.58399l0.0161-8.30127v-0.0469l7.2495-6.38965c9.63282-7.07811 18.92187-18.17235 23.34375-24.21533 1.88672-2.57812 3.44971-4.98047 3.29737-5.13281-0.0176-0.0176-0.0672-0.0269-0.13769-0.0308 0.0308-0.11416 0.0352-0.19804-3e-3 -0.23437-0.0796-0.0755-1.23877 0.26441-2.97217 0.84521-0.10013 0.0331-0.19759 0.0671-0.2959 0.10254-1.54684 0.52275-3.46805 1.20245-5.59864 1.99658-12.71022 4.73731-24.37119 6.73398-25.37109 4.36523 0.0205-0.6851 3.53874-4.3011 7.67139-8.11816 9.46875-8.75 14.87892-15.09863 16.27734-25.55566l0.22852-1.71826 0.0718-0.44092-2.91798 1.83984c-8.14453 5.14453-19.35937 9.88672-32.48437 13.7461l-3.85253 1.13232c-0.16261 0.0137-0.31642 0.0234-0.45118 0.0234-1.07422 0-3.23534-1.59033-6.04394-4.44579-2.40625-2.44531-6.68751-6.00341-9.51563-7.90577-0.98056-0.65923-2.12995-1.32758-3.32373-1.98632-1.55882-0.89554-3.21671-1.75457-5.09326-2.64258-7.83691-3.7085-18.42122-5.71347-28.77393-5.77588z" style="opacity:.3"/>
 <path d="m116.05078 330.39844c-12.765625-0.820313-29.160156-3.519532-43.628906-7.1875-17.191406-4.359376-41.652344-14.445313-46.855469-19.320313l-2.195312-2.054687 13.597656-0.820313c7.480469-0.449219 15.417969-1.050781 17.644531-1.339844 25.429688-3.277343 44.660157-10.441406 61.378907-22.855469 6.84375-5.082031 7.984374-7.398437 3.964843-8.023437-1.339843-0.207031-4.753906-0.742187-7.585937-1.191406-18.515625-2.914063-37.945313-14.402344-47.804688-28.257813-3.574218-5.027344-8.261718-14.128906-7.609375-14.78125 0.234375-0.234375 2.671875-0.035156 5.417969 0.441406 6.023438 1.050782 13.84375 0.523438 19.828125-1.328124 6.433594-1.992188 6.09375-3.484376-1.46875-6.460938-27.765625-10.925781-42.359375-29.929688-45.625-59.410156-0.257813-2.328125-0.257813-4.230469 0-4.230469s4.480469 1.367187 9.382813 3.035156c6.828124 2.324219 10.128906 3.054688 14.09375 3.125 7.273437 0.132813 7.265624-0.949219-0.066407-8.59375-20.453125-21.320312-26.605469-44.40625-18.910156-70.980469 1.023437-3.527343 2.507813-7.890624 3.304687-9.691406l1.449219-3.277344 8.988281 8.871094c21.765626 21.472656 41.148438 35.773438 62.699219 46.246094 22.148438 10.765625 44.070313 16.554688 63.644531 16.800781l9.195313 0.117188-0.152344-2.207031c-0.085937-1.214844-0.378906-5.382813-0.652343-9.265626-1.25-17.65625 5.308593-37.378906 17.316406-52.0625 6.765625-8.269531 21.558594-16.902343 35.007812-20.425781 14.40625-3.769531 33.976563-2.195312 46.515625 3.738281 7 3.3125 11.074219 6.175782 17.558594 12.332032l5.339844 5.074218 5.382812-1.582031c13.125-3.859375 24.339844-8.601562 32.484375-13.746093l2.917969-1.839844-0.445313 2.746094c-0.246093 1.511718-1.839843 5.558593-3.542968 8.996093-3.089844 6.234375-5.757813 9.386719-16.300782 19.25-2.339843 2.1875-4.136718 4.335938-3.992187 4.777344 0.808594 2.472656 12.574219 0.480469 25.402344-4.300781 4.726562-1.761719 8.714843-3.089844 8.867187-2.945313 0.5625 0.535157-6.6875 9.9375-12.117187 15.710938-3.101563 3.296875-9.238281 9.160156-13.636719 13.027343l-7.996094 7.03125-0.015625 8.582032c-0.085937 50.800781-21.6875 102.75391-58.414062 140.50391-24.261719 24.933594-51.722657 41.5625-84.011719 50.875-19.484375 5.621094-46.214844 8.316406-68.355469 6.898438z" style="fill:rgb(21.176%,48.235%,94.117%)"/>
 <path d="m112.97266 330.38672c-1.207031-0.164063-5.824218-0.40625-9.652344-0.832031-15.832031-1.773438-37.742187-7.3125-52.402343-12.9375-5.847657-2.246094-13.582031-5.375-19.21875-8.410157-7.566407-4.074219-11.667969-7.644531-5.332031-5.464843 11.347656 3.90625 36.203124 9.757812 51.085937 11.859374 13.871094 1.957032 43.007813 1.78125 56.703125-0.335937 43.125-6.675781 76.777344-23.695313 107.39453-54.3125 16.09375-16.09375 27.710938-31.996094 37.875-51.839844 12.4375-24.285156 18.964844-47.28125 21.484375-75.703125 2.539063-28.636718-5.292968-58.238281-19.332031-73.078125-1.230469-1.304687-3.039063-2.554687-2.769531-2.828125 0.800781-0.796875 10.992187 3.40625 16.535156 7.132813 2.828125 1.902343 7.109375 5.460937 9.515625 7.90625 2.808594 2.855469 4.96875 4.445312 6.042969 4.445312 4.914062 0 28.8125-9.300781 37.355468-14.984375l2.308594-1.535156-0.257812 1.9375c-1.398438 10.457031-6.808594 16.804688-16.277344 25.554688-4.296875 3.96875-7.941406 7.730468-7.667969 8.195312 0.808594 1.382812 2.046875 1.421875 7.996094 0.59375 5.253906-0.734375 15.71875-3.984375 22.476563-6.84375 1.574218-0.667969 3.753906-1.019531 3.902343-0.871094 0.152344 0.152344-1.410156 2.554688-3.296875 5.132813-4.421875 6.042969-13.710937 17.136719-23.34375 24.214843l-7.25 6.390626-0.105468 9.40625c-0.457032 40.800781-14.296876 83.761718-40.261719 118.48437-31.789063 42.511719-75.257813 69.800782-126.60156 77.164063-7.28125 1.046875-41.777344 2.257813-46.90625 1.558594z" style="fill:rgb(16.862%,38.431%,75.294%)"/>
</svg>

<svg xmlns="http://www.w3.org/2000/svg" width="384pt" height="384pt" version="1.1" viewBox="0 0 384 384"> <g> <path style="fill:rgb(21.176%,48.235%,94.117%)" d="M 116.050781 330.398438 C 103.285156 329.578125 86.890625 326.878906 72.421875 323.210938 C 55.230469 318.851562 30.769531 308.765625 25.566406 303.890625 L 23.371094 301.835938 L 36.96875 301.015625 C 44.449219 300.566406 52.386719 299.964844 54.613281 299.675781 C 80.042969 296.398438 99.273438 289.234375 115.992188 276.820312 C 122.835938 271.738281 123.976562 269.421875 119.957031 268.796875 C 118.617188 268.589844 115.203125 268.054688 112.371094 267.605469 C 93.855469 264.691406 74.425781 253.203125 64.566406 239.347656 C 60.992188 234.320312 56.304688 225.21875 56.957031 224.566406 C 57.191406 224.332031 59.628906 224.53125 62.375 225.007812 C 68.398438 226.058594 76.21875 225.53125 82.203125 223.679688 C 88.636719 221.6875 88.296875 220.195312 80.734375 217.21875 C 52.96875 206.292969 38.375 187.289062 35.109375 157.808594 C 34.851562 155.480469 34.851562 153.578125 35.109375 153.578125 C 35.367188 153.578125 39.589844 154.945312 44.492188 156.613281 C 51.320312 158.9375 54.621094 159.667969 58.585938 159.738281 C 65.859375 159.871094 65.851562 158.789062 58.519531 151.144531 C 38.066406 129.824219 31.914062 106.738281 39.609375 80.164062 C 40.632812 76.636719 42.117188 72.273438 42.914062 70.472656 L 44.363281 67.195312 L 53.351562 76.066406 C 75.117188 97.539062 94.5 111.839844 116.050781 122.3125 C 138.199219 133.078125 160.121094 138.867188 179.695312 139.113281 L 188.890625 139.230469 L 188.738281 137.023438 C 188.652344 135.808594 188.359375 131.640625 188.085938 127.757812 C 186.835938 110.101562 193.394531 90.378906 205.402344 75.695312 C 212.167969 67.425781 226.960938 58.792969 240.410156 55.269531 C 254.816406 51.5 274.386719 53.074219 286.925781 59.007812 C 293.925781 62.320312 298 65.183594 304.484375 71.339844 L 309.824219 76.414062 L 315.207031 74.832031 C 328.332031 70.972656 339.546875 66.230469 347.691406 61.085938 L 350.609375 59.246094 L 350.164062 61.992188 C 349.917969 63.503906 348.324219 67.550781 346.621094 70.988281 C 343.53125 77.222656 340.863281 80.375 330.320312 90.238281 C 327.980469 92.425781 326.183594 94.574219 326.328125 95.015625 C 327.136719 97.488281 338.902344 95.496094 351.730469 90.714844 C 356.457031 88.953125 360.445312 87.625 360.597656 87.769531 C 361.160156 88.304688 353.910156 97.707031 348.480469 103.480469 C 345.378906 106.777344 339.242188 112.640625 334.84375 116.507812 L 326.847656 123.539062 L 326.832031 132.121094 C 326.746094 182.921875 305.144531 234.875 268.417969 272.625 C 244.15625 297.558594 216.695312 314.1875 184.40625 323.5 C 164.921875 329.121094 138.191406 331.816406 116.050781 330.398438 Z M 116.050781 330.398438"/> <path style="fill:rgb(16.862%,38.431%,75.294%)" d="M 112.972656 330.386719 C 111.765625 330.222656 107.148438 329.980469 103.320312 329.554688 C 87.488281 327.78125 65.578125 322.242188 50.917969 316.617188 C 45.070312 314.371094 37.335938 311.242188 31.699219 308.207031 C 24.132812 304.132812 20.03125 300.5625 26.367188 302.742188 C 37.714844 306.648438 62.570312 312.5 77.453125 314.601562 C 91.324219 316.558594 120.460938 316.382812 134.15625 314.265625 C 177.28125 307.589844 210.933594 290.570312 241.550781 259.953125 C 257.644531 243.859375 269.261719 227.957031 279.425781 208.113281 C 291.863281 183.828125 298.390625 160.832031 300.910156 132.410156 C 303.449219 103.773438 295.617188 74.171875 281.578125 59.332031 C 280.347656 58.027344 278.539062 56.777344 278.808594 56.503906 C 279.609375 55.707031 289.800781 59.910156 295.34375 63.636719 C 298.171875 65.539062 302.453125 69.097656 304.859375 71.542969 C 307.667969 74.398438 309.828125 75.988281 310.902344 75.988281 C 315.816406 75.988281 339.714844 66.6875 348.257812 61.003906 L 350.566406 59.46875 L 350.308594 61.40625 C 348.910156 71.863281 343.5 78.210938 334.03125 86.960938 C 329.734375 90.929688 326.089844 94.691406 326.363281 95.15625 C 327.171875 96.539062 328.410156 96.578125 334.359375 95.75 C 339.613281 95.015625 350.078125 91.765625 356.835938 88.90625 C 358.410156 88.238281 360.589844 87.886719 360.738281 88.035156 C 360.890625 88.1875 359.328125 90.589844 357.441406 93.167969 C 353.019531 99.210938 343.730469 110.304688 334.097656 117.382812 L 326.847656 123.773438 L 326.742188 133.179688 C 326.285156 173.980469 312.445312 216.941406 286.480469 251.664062 C 254.691406 294.175781 211.222656 321.464844 159.878906 328.828125 C 152.597656 329.875 118.101562 331.085938 112.972656 330.386719 Z M 112.972656 330.386719"/> </g> </svg>
